public/icon.svg

<svg xmlns="http://www.w3.org/2000/svg" xmlns:xlink="http://www.w3.org/1999/xlink" width="512" zoomAndPan="magnify" viewBox="0 0 384 383.999986" height="512" preserveAspectRatio="xMidYMid meet" version="1.0"><path fill="#f9c5c7" d="M 254.804688 78.464844 C 246.144531 87.152344 232.078125 87.171875 223.390625 78.511719 C 214.703125 69.847656 214.683594 55.78125 223.347656 47.097656 C 232.007812 38.410156 246.074219 38.390625 254.761719 47.050781 C 263.449219 55.714844 263.46875 69.777344 254.804688 78.464844 Z M 161.03125 159.40625 C 159.996094 169.792969 173.558594 172.210938 177.652344 161.238281 C 199.5 118.0625 242.8125 121.441406 271.976562 153.964844 C 285.832031 168.578125 310.558594 144.863281 299.457031 127.796875 C 268.738281 73.757812 168.5 88.882812 161.03125 159.40625 Z M 161.03125 159.40625 " fill-opacity="1" fill-rule="nonzero"/><path fill="#ffc697" d="M 100.507812 85.394531 C 106.128906 96.296875 101.847656 109.695312 90.945312 115.316406 C 80.042969 120.941406 66.644531 116.660156 61.019531 105.757812 C 55.398438 94.855469 59.679688 81.457031 70.582031 75.832031 C 81.484375 70.210938 94.882812 74.492188 100.507812 85.394531 Z M 148.90625 199.429688 C 158.484375 203.59375 164.929688 191.417969 155.738281 184.167969 C 121.304688 150.167969 137.761719 109.960938 177.644531 92.136719 C 195.796875 83.410156 180.773438 52.613281 161.128906 57.96875 C 100.28125 70.695312 84.046875 170.761719 148.90625 199.429688 Z M 148.90625 199.429688 " fill-opacity="1" fill-rule="nonzero"/><path fill="#ddc3e3" d="M 59.945312 234.425781 C 72.046875 232.40625 83.496094 240.578125 85.515625 252.679688 C 87.535156 264.777344 79.367188 276.226562 67.265625 278.246094 C 55.164062 280.269531 43.714844 272.097656 41.695312 259.996094 C 39.675781 247.894531 47.847656 236.449219 59.945312 234.425781 Z M 183.308594 223.210938 C 190.203125 215.367188 180.578125 205.507812 170.867188 212.039062 C 127.96875 234.433594 94.71875 206.472656 89.9375 163.050781 C 87.175781 143.101562 53.265625 147.988281 52.355469 168.332031 C 45.875 230.152344 136.183594 276.203125 183.308594 223.210938 Z M 183.308594 223.210938 " fill-opacity="1" fill-rule="nonzero"/><path fill="#cbd3ad" d="M 189.4375 318.617188 C 191.210938 306.476562 202.492188 298.074219 214.632812 299.851562 C 226.769531 301.625 235.171875 312.90625 233.398438 325.042969 C 231.621094 337.183594 220.34375 345.585938 208.203125 343.808594 C 196.0625 342.035156 187.664062 330.753906 189.4375 318.617188 Z M 216.46875 197.722656 C 211.109375 188.761719 198.777344 194.910156 202.03125 206.15625 C 210.238281 253.847656 173.453125 276.960938 130.644531 268.238281 C 110.804688 264.765625 105.09375 298.550781 124.183594 305.632812 C 181.066406 330.699219 252.519531 258.792969 216.46875 197.722656 Z M 216.46875 197.722656 " fill-opacity="1" fill-rule="nonzero"/><path fill="#99c1de" d="M 309.179688 221.054688 C 298.164062 215.65625 293.613281 202.347656 299.015625 191.332031 C 304.414062 180.316406 317.722656 175.765625 328.738281 181.164062 C 339.753906 186.566406 344.304688 199.875 338.902344 210.890625 C 333.503906 221.90625 320.195312 226.457031 309.179688 221.054688 Z M 202.339844 158.359375 C 192.167969 160.726562 194.25 174.34375 205.957031 174.6875 C 253.871094 181.449219 264.632812 223.542969 243.242188 261.632812 C 233.871094 279.457031 264.292969 295.226562 276.871094 279.214844 C 318.128906 232.71875 271.503906 142.703125 202.339844 158.359375 Z M 202.339844 158.359375 " fill-opacity="1" fill-rule="nonzero"/></svg>

<svg xmlns="http://www.w3.org/2000/svg" width="512" height="512" viewBox="0 0 384 384" fill="none">
  <path fill="#F07078" d="M254.805 78.465c-8.66 8.687-22.726 8.707-31.414-.953-8.688-8.664-8.707-22.73.957-31.414 8.66-8.687 22.726-8.707 31.414.953 8.688 8.665 8.707 22.73-.957 31.414ZM161.031 159.406c-1.035 10.387 12.527 12.805 16.621 1.832 21.848-43.176 65.16-39.797 94.324-7.274 13.856 14.614 38.582-9.101 27.481-26.168C268.738 73.758 168.5 88.883 161.031 159.406Z"/>
  <path fill="#FF9D4D" d="M100.508 85.395c5.621 10.902 1.34 24.3-9.563 29.922-10.902 5.625-24.3 1.344-29.926-9.559-5.621-10.902-1.34-24.3 9.563-29.922 10.902-5.621 24.3-1.344 29.926 9.559ZM148.906 199.43c9.578 4.164 16.023-8.012 6.832-15.262-34.434-34-17.977-74.207 21.906-92.031 18.152-8.727 3.129-39.523-16.516-34.168C100.281 70.695 84.047 170.762 148.906 199.43Z"/>
  <path fill="#B87FD0" d="M59.945 234.426c12.102-2.02 23.551 6.152 25.57 18.254 2.02 12.098-6.148 23.547-18.25 25.566-12.101 2.024-23.551-6.148-25.57-18.25-2.02-12.102 6.152-23.547 18.25-25.57ZM183.309 223.211c6.894-7.844-3.731-17.704-13.442-11.172-42.898 22.394-76.148-5.567-80.93-48.989-2.761-19.95-36.672-15.063-37.582 5.281-6.48 61.82 83.828 107.871 130.954 54.88Z"/>
  <path fill="#9DB852" d="M189.438 318.617c1.773-12.141 13.054-20.543 25.195-18.766 12.14 1.774 20.543 13.055 18.766 25.191-1.777 12.141-13.055 20.543-25.195 18.766-12.141-1.773-20.544-13.054-18.766-25.191ZM216.469 197.723c-5.359-8.961-17.691-2.812-14.437 8.434 8.207 47.691-28.578 70.804-71.387 62.082-19.84-3.473-25.551 30.312-6.461 37.394 56.883 25.066 128.336-46.841 92.285-107.91Z"/>
  <path fill="#4DA3E0" d="M309.18 221.055c-11.016-5.399-15.566-18.707-10.164-29.723 5.4-11.016 18.708-15.566 29.724-10.168 11.015 5.402 15.566 18.711 10.164 29.726-5.4 11.016-18.708 15.566-29.724 10.165ZM202.34 158.36c-10.172 2.367-8.09 15.984 3.617 16.328 47.914 6.762 58.675 48.855 37.285 86.945-9.371 17.825 21.051 33.594 33.629 17.582 41.258-46.496-5.367-136.511-74.531-120.855Z"/>
</svg>
